X: 021
T: Parisots Hornpipe
%R: hornpipe, reel
M: C|
L: 1/8
Z: 2014 John Chambers <jc:trillian.mit.edu>
B: Chas & Sam Thompson "Twenty Four Country Dances for the Year 1802", London 1802, p.2 #1
F: http://folkopedia.efdss.org/images/4/41/Thompson_24_1802.PDF
K: G
BA |\
GFGA BABG | cdBc A2dc |\
BdGB AcFc | GBdg G2 |]
AG |\
FGEF D2cB | ABGA F2ed |cBed cBed | cBcA G"^D.C."F |]
% - - - - - - - - - - - - - - - - - - - - - - - - -
%%begintext align
%% Change sides and back again lead down
%% the middle up again and allemande
%%endtext
% - - - - - - - - - - - - - - - - - - - - - - - - -

%%sep 1 1 500
%%sep 1 1 500
